X:1
T:Wake the song of triumph
T:Wake the song of triumph
T:Easter carol
T:Arr. by C. Lindsay
T:Words by Geo. Cooper
T:by Library of Congress
T:by Library of Congress
C:Arr. by C. Lindsay
Z:Words by Geo. Cooper
Z:by Library of Congress
%%score [ ( 1 2 ) ( 3 4 ) ]
L:1/8
Q:1/4=68
M:2/4
K:A
V:1 treble nm="S\nA"
V:2 treble 
V:3 bass nm="T\nB"
V:4 bass 
V:1
!mp! E E E E | F2 E2 | d c B A | F3 F | E E F G | A2 B c | B G F G | E2 B2 | B B c d | e2 d c | %10
w: Wake the song of|triumph! *|Sing it far and|near; The|bles\- sed dawn is|break\- ing, And|gone our gloo\- my|fear! Our|Saviour * reigns in|glo\- ry, The|
w: Sound the bells so|sweet\- ly|To the list' ning|sky! The|Lord of all is|ris\- en, And|reigh\- eth now on|hight! All|earth, its bloom re\-|turn\- ing, Re\-|
w: Crown the font with|li\- lies,|Em\- blems, sweet and|pure, Of|Him whose love and|kind\- ness, Shall|ev\- er\- more en\-|dure! With|vioc\- es sweet\- ly|blend\- ing, Our|
 B B c d |!<(! e2 e2!<)! |!>(! d c B A!>)! | G2 F E |!p! E A B c | !fermata!c4 |!p! E E E E | %17
w: tomb is rent in|twain; And|earth is sweet\- ly|smil\- ing, With|hope and joy a\-|gain!|Wake the song of|
w: joic\- es on this|morn; The|glow of hope\- ful|prom\- ise, In|ev\- 'ry soul is|Born!||
w: glad some tribu\- tes|bring, And|tell the glo\- ries|ev\- er, Of|Christ our Lord and|King!||
 F2 E2 | d c B A | F3 F | E E F G | A2 B c | e d B c | !fermata!A4 :| %24
w: tri\- umph!|All the earth be|gay! With|bright and joy\- ous|car\- ols, Each|heart keep Eas\- ter|day!|
w: |||||||
w: |||||||
V:2
 C C C C | D2 C2 | F E D C | D3 D | B,2 B, B, | A,2 E E | E E E ^D | B,2 z2 | E2 E E | E2 E E | %10
 E E E E | E2 =G2 | F E D F | E2 D D | C E ^D D | E4 | C C C C | D2 C2 | F E D C | D3 D | %20
 B,2 B, B, | A,2 E E | =G F D E | C4 :| %24
V:3
 A, A, A, A, | A,2 A,2 | A, A, A, A, | A,3 A, | G, G, F, E, | (E,F,) G, A, | B, C C A, | G,2 z2 | %8
 G,2 G, G, | A,2 A, A, | G, G, G, G, | A,2 C2 | B, E, F, B, | B,2 A, B, | A, C A, A, | G,4 | %16
 A, A, A, A, | A,2 A,2 | A, A, A, A, | A,3 A, | G, G, F, E, | (E,F,) G, A, | ^A, B, G, G, | A,4 :| %24
V:4
 A, A, A, A, | A,2 A,2 | A, A, A, A, | D,3 D, | D, D, D, D, | C,2 B,, A,, | G,, C, A,, B,, | %7
 E,2 z2 | D,2 D, D, | C,2 C, C, | D, D, D, D, | C,2 ^A,,2 | B,, C, D, ^D, | E, E, F, G, | %14
 A, A, F, F, | E,4 | A, A, A, A, | A,2 A,2 | A, A, A, A, | D,3 D, | D, D, D, D, | C,2 B,, A,, | %22
 D, D, E, E, | A,,4 :| %24

